X: 100420
T: THE FIRTH HOUSE HORNPIPE
C: Com. by G. Duncan, Esq.
R: hornpipe
B: K\"ohler's Violin Repository, v.3, 1885 p.271 #1
F: http://www.archive.org/details/klersviolinrepos03rugg
Z: 2012 John Chambers <jc:trillian.mit.edu>
M: C|
L: 1/8
K: Bb
uF2 |\
((3BcB) A>c B>d f2 | ((3fgf) e>c B>d F2 | (G>A)B>G F>B d2 | ((3ded) c>=B (.c2.F2) |
((3_BcB) A>c B>d f2 | ((3fgf) e>c B>d F2 | (G>A)B>G F>B ((3edc) | B2 f2 B2 || uD2 |
(G>A)B>c ((3dec) d2 | (G>A)B>c ((3dec) d2 | e2 ((3ded) ((3cdc) ((3BcB) | (3ABc ((3BAG) ^F2 D2 |
(G>A)B>c ((3dec) d2 | (G>A)B>c ((3dec) d2 | e2 ((3ded) ((3cdc) ((3BcB) | (3ABc (B>A) G2 |]

%%sep 2 1 500

